dist/flags/l/152.svg

<svg width="32" height="24" viewBox="0 0 32 24" fill="none" xmlns="http://www.w3.org/2000/svg">
<mask id="mask0" mask-type="alpha" maskUnits="userSpaceOnUse" x="0" y="0" width="32" height="24">
<rect width="32" height="24" fill="white"/>
</mask>
<g mask="url(#mask0)">
<path fill-rule="evenodd" clip-rule="evenodd" d="M0 0H14V14H0V0Z" fill="#3D58DB"/>
<path fill-rule="evenodd" clip-rule="evenodd" d="M14 -2H32V14H14V-2Z" fill="#F7FCFF"/>
<path fill-rule="evenodd" clip-rule="evenodd" d="M0 14H32V24H0V14Z" fill="#E31D1C"/>
<path fill-rule="evenodd" clip-rule="evenodd" d="M7.0144 9.78332L3.21073 12.0548L5.08789 8.18995L1.76379 5.67975L5.60128 5.63865L7.04897 2.21143L7.98109 5.63865L11.6133 5.65578L8.8507 8.11094L10.2853 12.0548L7.0144 9.78332Z" fill="#F7FCFF"/>
</g>
</svg>

<svg width="32" height="24" fill="none" xmlns="http://www.w3.org/2000/svg">
  <mask id="a" maskUnits="userSpaceOnUse" x="0" y="0" width="32" height="24">
    <path fill="#fff" d="M0 0h32v24H0z"/>
  </mask>
  <g mask="url(#a)" fill-rule="evenodd" clip-rule="evenodd">
    <path d="M0 0h14v14H0V0z" fill="#3D58DB"/>
    <path d="M14-2h18v16H14V-2z" fill="#F7FCFF"/>
    <path d="M0 14h32v10H0V14z" fill="#E31D1C"/>
    <path d="M7.014 9.783l-3.803 2.272L5.088 8.19 1.764 5.68 5.6 5.639 7.05 2.21l.932 3.428 3.632.017L8.851 8.11l1.434 3.944-3.27-2.272z" fill="#F7FCFF"/>
  </g>
</svg>
